images/category_icons/platforms-icon.svg

<svg width="80" height="80" viewBox="0 0 80 80" fill="none" xmlns="http://www.w3.org/2000/svg">
<path d="M76 0H4C2.93913 0 1.92172 0.421427 1.17157 1.17157C0.421427 1.92172 0 2.93913 0 4V76C0 77.0609 0.421427 78.0783 1.17157 78.8284C1.92172 79.5786 2.93913 80 4 80H76C77.0609 80 78.0783 79.5786 78.8284 78.8284C79.5786 78.0783 80 77.0609 80 76V4C80 2.93913 79.5786 1.92172 78.8284 1.17157C78.0783 0.421427 77.0609 0 76 0ZM77.3333 76C77.3333 76.3536 77.1929 76.6928 76.9428 76.9428C76.6928 77.1929 76.3536 77.3333 76 77.3333H4C3.64638 77.3333 3.30724 77.1929 3.05719 76.9428C2.80714 76.6928 2.66667 76.3536 2.66667 76V13.3333H77.3333V76ZM2.66667 10.6667V4C2.66667 3.64638 2.80714 3.30724 3.05719 3.05719C3.30724 2.80714 3.64638 2.66667 4 2.66667H76C76.3536 2.66667 76.6928 2.80714 76.9428 3.05719C77.1929 3.30724 77.3333 3.64638 77.3333 4V10.6667H2.66667Z" fill="black"/>
<path d="M6.16 5.43998C5.99454 5.49986 5.84427 5.5954 5.71985 5.71983C5.59542 5.84425 5.49988 5.99452 5.44 6.15998C5.36962 6.31962 5.33327 6.49218 5.33327 6.66665C5.33327 6.84111 5.36962 7.01367 5.44 7.17331C5.50443 7.33649 5.59947 7.48584 5.72 7.61331C5.84968 7.73098 5.99848 7.82567 6.16 7.89331C6.3203 7.96163 6.49243 7.99787 6.66667 7.99998C6.75168 7.9977 6.83638 7.98878 6.92 7.97331C7.00831 7.96095 7.09394 7.93391 7.17333 7.89331C7.25832 7.86417 7.33903 7.82381 7.41333 7.77331C7.48319 7.72409 7.54998 7.67066 7.61333 7.61331C7.86122 7.36056 8.00007 7.02066 8.00007 6.66665C8.00007 6.31263 7.86122 5.97273 7.61333 5.71998C7.42426 5.53752 7.18625 5.41392 6.92824 5.36421C6.67023 5.3145 6.40333 5.34082 6.16 5.43998Z" fill="black"/>
<path d="M12.5067 5.44001C12.3476 5.36749 12.1748 5.32996 12 5.32996C11.8252 5.32996 11.6524 5.36749 11.4933 5.44001C11.3279 5.49989 11.1776 5.59543 11.0532 5.71986C10.9288 5.84428 10.8332 5.99455 10.7733 6.16001C10.703 6.31965 10.6666 6.49221 10.6666 6.66668C10.6666 6.84114 10.703 7.0137 10.7733 7.17334C10.8378 7.33652 10.9328 7.48587 11.0533 7.61334C11.183 7.73101 11.3318 7.8257 11.4933 7.89334C11.653 7.96364 11.8255 7.99995 12 7.99995C12.1745 7.99995 12.347 7.96364 12.5067 7.89334C12.6698 7.82891 12.8192 7.73387 12.9467 7.61334C13.1946 7.36059 13.3334 7.02069 13.3334 6.66668C13.3334 6.31266 13.1946 5.97276 12.9467 5.72001C12.8192 5.59948 12.6698 5.50444 12.5067 5.44001Z" fill="black"/>
<path d="M18.28 5.72C18.0925 5.53499 17.8544 5.40966 17.5958 5.35983C17.3371 5.31 17.0695 5.3379 16.8267 5.44C16.6651 5.50764 16.5163 5.60233 16.3867 5.72C16.2661 5.84748 16.1711 5.99683 16.1067 6.16C16.0363 6.31965 15.9999 6.4922 15.9999 6.66667C15.9999 6.84114 16.0363 7.01369 16.1067 7.17334C16.1711 7.33651 16.2661 7.48586 16.3867 7.61334C16.5163 7.73101 16.6651 7.8257 16.8267 7.89334C16.987 7.96166 17.1591 7.9979 17.3333 8C17.6863 7.99483 18.0243 7.85676 18.28 7.61334C18.4005 7.48586 18.4956 7.33651 18.56 7.17334C18.6303 7.01367 18.6666 6.84113 18.6666 6.66667C18.6666 6.49221 18.6303 6.31967 18.56 6.16C18.4956 5.99683 18.4005 5.84748 18.28 5.72Z" fill="black"/>
<path d="M9.33333 74.6667H70.6667C71.7275 74.6667 72.7449 74.2452 73.4951 73.4951C74.2452 72.7449 74.6667 71.7275 74.6667 70.6667V20C74.6667 18.9391 74.2452 17.9217 73.4951 17.1716C72.7449 16.4214 71.7275 16 70.6667 16H30.6667C29.6058 16 28.5884 16.4214 27.8382 17.1716C27.0881 17.9217 26.6667 18.9391 26.6667 20V34.6667H9.33333C8.27247 34.6667 7.25505 35.0881 6.50491 35.8382C5.75476 36.5884 5.33333 37.6058 5.33333 38.6667V70.6667C5.33333 71.7275 5.75476 72.7449 6.50491 73.4951C7.25505 74.2452 8.27247 74.6667 9.33333 74.6667ZM8 70.6667V69.3333H29.3333V70.6667C29.3333 71.0203 29.1929 71.3594 28.9428 71.6095C28.6928 71.8595 28.3536 72 28 72H9.33333C8.97971 72 8.64057 71.8595 8.39052 71.6095C8.14047 71.3594 8 71.0203 8 70.6667ZM8 42.6667H29.3333V66.6667H8V42.6667ZM72 64H32V38.6667C31.9966 37.8423 31.7386 37.0392 31.2612 36.3671C30.7839 35.695 30.1105 35.1868 29.3333 34.912V26.6667H72V64ZM50.6667 70.6667C50.403 70.6667 50.1452 70.5885 49.9259 70.442C49.7066 70.2955 49.5357 70.0872 49.4348 69.8436C49.3339 69.5999 49.3075 69.3319 49.359 69.0732C49.4104 68.8146 49.5374 68.577 49.7239 68.3905C49.9103 68.2041 50.1479 68.0771 50.4065 68.0256C50.6652 67.9742 50.9333 68.0006 51.1769 68.1015C51.4205 68.2024 51.6288 68.3733 51.7753 68.5926C51.9218 68.8118 52 69.0696 52 69.3333C52 69.687 51.8595 70.0261 51.6095 70.2761C51.3594 70.5262 51.0203 70.6667 50.6667 70.6667ZM47.7067 72H31.7547C31.9126 71.573 31.9956 71.1219 32 70.6667V66.6667H47.7067C47.0378 67.3937 46.6666 68.3455 46.6666 69.3333C46.6666 70.3212 47.0378 71.273 47.7067 72ZM70.6667 72H53.6267C54.2955 71.273 54.6667 70.3212 54.6667 69.3333C54.6667 68.3455 54.2955 67.3937 53.6267 66.6667H72V70.6667C72 71.0203 71.8595 71.3594 71.6095 71.6095C71.3594 71.8595 71.0203 72 70.6667 72ZM30.6667 18.6667H70.6667C71.0203 18.6667 71.3594 18.8071 71.6095 19.0572C71.8595 19.3072 72 19.6464 72 20V24H29.3333V20C29.3333 19.6464 29.4738 19.3072 29.7239 19.0572C29.9739 18.8071 30.313 18.6667 30.6667 18.6667ZM9.33333 37.3333H28C28.3536 37.3333 28.6928 37.4738 28.9428 37.7239C29.1929 37.9739 29.3333 38.313 29.3333 38.6667V40H8V38.6667C8 38.313 8.14047 37.9739 8.39052 37.7239C8.64057 37.4738 8.97971 37.3333 9.33333 37.3333Z" fill="black"/>
<path d="M50.6667 22.6667C51.0196 22.6615 51.3577 22.5234 51.6133 22.28C51.8589 22.0258 51.9974 21.6868 52 21.3333C51.9979 21.1591 51.9617 20.987 51.8933 20.8267C51.8321 20.6619 51.7367 20.5119 51.6133 20.3867C51.3555 20.1488 51.0175 20.0167 50.6667 20.0167C50.3158 20.0167 49.9778 20.1488 49.72 20.3867C49.5966 20.5119 49.5012 20.6619 49.44 20.8267C49.3717 20.987 49.3354 21.1591 49.3333 21.3333C49.336 21.6868 49.4744 22.0258 49.72 22.28C49.9757 22.5234 50.3137 22.6615 50.6667 22.6667Z" fill="black"/>
</svg>

<svg xmlns="http://www.w3.org/2000/svg" fill="none" viewBox="0 0 80 80"><path fill="#000" d="M76 0H4a4 4 0 00-4 4v72a4 4 0 004 4h72a4 4 0 004-4V4a4 4 0 00-4-4zm1.333 76A1.333 1.333 0 0176 77.333H4A1.333 1.333 0 012.667 76V13.333h74.666V76zM2.667 10.667V4A1.333 1.333 0 014 2.667h72A1.333 1.333 0 0177.333 4v6.667H2.667z"/><path fill="#000" d="M6.16 5.44a1.2 1.2 0 00-.72.72 1.256 1.256 0 000 1.013c.064.163.16.313.28.44.13.118.278.213.44.28.16.069.332.105.507.107.085-.002.17-.011.253-.027a.8.8 0 00.253-.08c.085-.029.166-.07.24-.12.07-.049.137-.102.2-.16a1.352 1.352 0 000-1.893 1.356 1.356 0 00-1.453-.28zM12.507 5.44a1.222 1.222 0 00-1.014 0 1.2 1.2 0 00-.72.72 1.257 1.257 0 000 1.013c.065.164.16.313.28.44.13.118.279.213.44.28a1.257 1.257 0 001.014 0c.163-.064.312-.16.44-.28a1.352 1.352 0 000-1.893 1.377 1.377 0 00-.44-.28zM18.28 5.72a1.333 1.333 0 00-1.453-.28c-.162.068-.31.162-.44.28-.12.127-.216.277-.28.44a1.256 1.256 0 000 1.013c.064.164.16.313.28.44.13.118.278.213.44.28.16.069.332.105.506.107.353-.005.691-.143.947-.387.12-.127.216-.276.28-.44a1.257 1.257 0 000-1.013 1.376 1.376 0 00-.28-.44zM9.333 74.667h61.334a4 4 0 004-4V20a4 4 0 00-4-4h-40a4 4 0 00-4 4v14.667H9.333a4 4 0 00-4 4v32a4 4 0 004 4zm-1.333-4v-1.334h21.333v1.334A1.333 1.333 0 0128 72H9.333A1.334 1.334 0 018 70.667zm0-28h21.333v24H8v-24zM72 64H32V38.667a4 4 0 00-2.667-3.755v-8.245H72V64zm-21.333 6.667a1.334 1.334 0 110-2.668 1.334 1.334 0 010 2.668zM47.707 72H31.755c.158-.427.24-.878.245-1.333v-4h15.707a3.938 3.938 0 000 5.333zm22.96 0h-17.04a3.939 3.939 0 000-5.333H72v4A1.334 1.334 0 0170.667 72zm-40-53.333h40A1.333 1.333 0 0172 20v4H29.333v-4a1.333 1.333 0 011.334-1.333zM9.333 37.333H28a1.333 1.333 0 011.333 1.334V40H8v-1.333a1.333 1.333 0 011.333-1.334z"/><path fill="#000" d="M50.667 22.667c.353-.006.69-.144.946-.387.246-.254.384-.593.387-.947a1.332 1.332 0 00-.107-.506 1.243 1.243 0 00-.28-.44 1.396 1.396 0 00-1.893 0 1.243 1.243 0 00-.28.44c-.068.16-.105.332-.107.506.003.354.141.693.387.947.256.243.594.381.947.387z"/></svg>
